!!!COM: Clementi, Muzio
!!!CDT: 1752/01/23/-1832/03/10/
!!!ODT: ~1800///
!!!OTL: Sonata No. 5 in G Major, Op. 36, Mvmt. 3
!!!OPS: Op. 36
!!!ONM: No. 5
!!!OMV: 3. Allegro di molto
!!!AGN: Rondo
**kern	**dynam	**kern	**dynam
*staff2	*staff2	*staff1	*staff1
*Ipiano	*Ipiano	*Ipiano	*Ipiano
*>[A,B,A]	*>[A,B,A]	*>[A,B,A]	*>[A,B,A]
*>A	*>A	*>A	*>A
*clefG2	*clefG2	*clefG2	*clefG2
*k[f#]	*k[f#]	*k[f#]	*k[f#]
*G:	*G:	*G:	*G:
*M2/4	*M2/4	*M2/4	*M2/4
*MM120	*MM120	*MM120	*MM120
4r	p	16gg\LL	p
.	.	16aa\	.
.	.	16bb\	.
.	.	16ccc\JJ	.
=1	=1	=1	=1
8B/ 8g/L	.	4ddd\	.
8B/ 8g/J	.	.	.
4r	.	16ccc\LL	.
.	.	16bb\	.
.	.	16aa\	.
.	.	16gg\JJ	.
=2	=2	=2	=2
8d/ 8a/L	.	4ff#\	.
8d/ 8a/J	.	.	.
4r	.	16gg\LL	.
.	.	16ff#\	.
.	.	16ee\	.
.	.	16dd\JJ	.
=3	=3	=3	=3
8g/ 8b/L	.	8gg\L	.
8g/ 8b/	.	8gg\J	.
8g/ 8b/	.	16aa\LL	.
.	.	16gg\	.
8g/ 8b/J	.	16ff#\	.
.	.	16gg\JJ	.
=4	=4	=4	=4
8d/ 8a/L	.	4aa\	.
8d/ 8a/J	.	.	.
4r	.	16aa\LL	.
.	.	16bb\	.
.	.	16ccc\	.
.	.	16ddd\JJ	.
=5	=5	=5	=5
8f#/ 8cc/L	.	4eee\	.
8f#/ 8cc/J	.	.	.
4r	.	16ddd\LL	.
.	.	16ccc\	.
.	.	16bb\	.
.	.	16aa\JJ	.
=6	=6	=6	=6
8g'/ 8b'/	.	8ddd\L	.
8r	.	8ddd\J	.
8g'/ 8b'/	.	16ccc\LL	.
.	.	16bb\	.
8r	.	16aa\	.
.	.	16gg\JJ	.
=7	=7	=7	=7
8d'/ 8a'/	.	8ccc\L	.
8r	.	8ccc\J	.
8d'/ 8a'/	.	16bb\LL	.
.	.	16aa\	.
8r	.	16gg\	.
.	.	16ff#\JJ	.
=8	=8	=8	=8
8B/ 8g/	.	8gg\	.
8r	.	8r	.
4r	f	16g/LL	f
.	.	16a/	.
.	.	16b/	.
.	.	16cc/JJ	.
*clefF4	*clefF4	*	*
=9	=9	=9	=9
8G\ 8B\L	.	(4dd\	.
8G\ 8B\J	.	.	.
4r	.	16cc/LL	.
.	.	16b/	.
.	.	16a/	.
.	.	16g/JJ)	.
=10	=10	=10	=10
8A\ 8c\L	.	(4f#/	.
8A\ 8c\J	.	.	.
4r	.	16g/LL	.
.	.	16f#/	.
.	.	16e/	.
.	.	16d/JJ)	.
=11	=11	=11	=11
8G\ 8B\L	.	8g/L	.
8G\ 8B\	.	8g/J	.
8G\ 8B\	.	16a/LL	.
.	.	16g/	.
8G\ 8B\J	.	16f#/	.
.	.	16g/JJ	.
=12	=12	=12	=12
8D\ 8A\L	.	4a/	.
8D\ 8A\J	.	.	.
4r	.	16a\LL	.
.	.	16b\	.
.	.	16cc\	.
.	.	16dd\JJ	.
=13	=13	=13	=13
8F#\ 8c\L	.	(4ee\	.
8F#\ 8c\J	.	.	.
4r	.	16dd\LL	.
.	.	16cc\	.
.	.	16b\	.
.	.	16a\JJ)	.
=14	=14	=14	=14
8G\ 8B\	.	8dd\L	.
8r	.	8dd\J	.
8G\ 8B\	.	16cc/LL	.
.	.	16b/	.
8r	.	16a/	.
.	.	16g/JJ	.
=15	=15	=15	=15
8D\ 8A\	.	8cc\L	.
8r	.	8cc\J	.
8D\ 8A\	.	16b/LL	.
.	.	16a/	.
8r	.	16g/	.
.	.	16f#/JJ	.
=16	=16	=16	=16
8G\ 8B\	.	8g/L	.
8r	.	8g/J	.
4r	p	16gg\LL	p
.	.	16ff#\	.
.	.	16gg\	.
.	.	16ee\JJ	.
*clefG2	*clefG2	*	*
=17	=17	=17	=17
4e/ 4g/	.	8cc#\L	.
.	.	8cc#\J	.
4e/ 4g/	.	16dd\LL	.
.	.	16cc#\	.
.	.	16b\	.
.	.	16a\JJ	.
=18	=18	=18	=18
4d/ 4f#/	.	8dd\L	.
.	.	8dd\J	.
4r	.	16aa\LL	.
.	.	16ff#\	.
.	.	16aa\	.
.	.	16dd\JJ	.
=19	=19	=19	=19
4e/ 4g/	.	8cc#\L	.
.	.	8cc#\J	.
4e/ 4g/	.	16dd\LL	.
.	.	16cc#\	.
.	.	16b\	.
.	.	16cc#\JJ	.
=20	=20	=20	=20
4d/ 4f#/	.	8dd\L	.
.	.	16ee\L	.
.	.	16ff#\JJ	.
4r	.	16gg\LL	.
.	.	16ff#\	.
.	.	16gg\	.
.	.	16ee\JJ	.
=21	=21	=21	=21
4e/ 4g/	.	8cc#\L	.
.	.	8cc#\J	.
4e/ 4g/	.	16dd\LL	.
.	.	16cc#\	.
.	.	16b\	.
.	.	16cc#\JJ	.
=22	=22	=22	=22
4d/ 4f#/	.	16dd\LL	.
.	.	16ee\	.
.	.	16ff#\	.
.	.	16gg\JJ	.
4r	.	16aa\LL	.
.	.	16bb\	.
.	.	16ccc#\	.
.	.	16ddd\JJ	.
=23	=23	=23	=23
4A/ 4e/ 4g/	.	8r	.
.	.	16gg\LL	.
.	.	16ee\JJ	.
4A/ 4e/ 4g/	.	16cc#\LL	.
.	.	16ee\	.
.	.	16cc#\	.
.	.	16ee\JJ	.
=24	=24	=24	=24
2d/ 2f#/	.	16dd\LL	.
.	.	16ff#\	.
.	.	16aa\	.
.	.	16ff#\JJ	.
.	.	16aa\LL	.
.	.	16ff#\	.
.	.	16aa\	.
.	.	16ff#\JJ	.
=25	=25	=25	=25
2d/ 2g/	.	16ee\LL	.
.	.	16gg\	.
.	.	16bb\	.
.	.	16gg\JJ	.
.	.	16bb\LL	.
.	.	16gg\	.
.	.	16bb\	.
.	.	16gg\JJ	.
=26	=26	=26	=26
2d/ 2a/	.	16ff#\LL	.
.	.	16aa\	.
.	.	16cccn\	.
.	.	16aa\JJ	.
.	.	16ccc\LL	.
.	.	16aa\	.
.	.	16ccc\	.
.	.	16aa\JJ	.
=27	=27	=27	=27
2r	.	16ff#\LL	.
.	.	16aa\	.
.	.	16ccc\	.
.	.	16aa\JJ	.
.	.	16ff#\LL	.
.	.	16aa\	.
.	.	16ccc\	.
.	.	16aa\JJ	.
=28	=28	=28	=28
2r	.	16ff#\LL	.
.	.	16dd\	.
.	.	16ee\	.
.	.	16ff#\JJ	.
.	p	16gg\LL	p
.	.	16aa\	.
.	.	16bb\	.
.	.	16ccc\JJ	.
=29	=29	=29	=29
8B/ 8g/L	.	(4ddd\	.
8B/ 8g/J	.	.	.
4r	.	16ccc\LL	.
.	.	16bb\	.
.	.	16aa\	.
.	.	16gg\JJ)	.
=30	=30	=30	=30
8d/ 8a/L	.	(4ff#\	.
8d/ 8a/J	.	.	.
4r	.	16gg\LL	.
.	.	16ff#\	.
.	.	16ee\	.
.	.	16dd\JJ)	.
=31	=31	=31	=31
8g/ 8b/L	.	8gg\L	.
8g/ 8b/	.	8gg\J	.
8g/ 8b/	.	16aa\LL	.
.	.	16gg\	.
8g/ 8b/J	.	16ff#\	.
.	.	16gg\JJ	.
=32	=32	=32	=32
8d/ 8a/L	.	4aa\	.
8d/ 8a/J	.	.	.
4r	.	16aa\LL	.
.	.	16bb\	.
.	.	16ccc\	.
.	.	16ddd\JJ	.
=33	=33	=33	=33
8f#/ 8cc/L	.	(4eee\	.
8f#/ 8cc/J	.	.	.
4r	.	16ddd\LL	.
.	.	16ccc\	.
.	.	16bb\	.
.	.	16aa\JJ)	.
=34	=34	=34	=34
8g/ 8b/	.	8ddd\L	.
8r	.	(8ddd\J	.
8g/ 8b/	.	16ccc\LL	.
.	.	16bb\	.
8r	.	16aa\	.
.	.	16gg\JJ	.
=35	=35	=35	=35
8d/ 8a/	.	8ccc\L)	.
8r	.	(8ccc\J	.
8d/ 8a/	.	16bb\LL	.
.	.	16aa\	.
8r	.	16gg\	.
.	.	16ff#\JJ	.
=36	=36	=36	=36
8B/ 8g/	.	8gg\)	.
8r	.	8r	.
4r	.	16g/LL	.
.	.	16a/	.
.	.	16b/	.
.	.	16cc/JJ	.
*clefF4	*clefF4	*	*
=37	=37	=37	=37
(8GG/L	.	(4dd\	.
8BB/	.	.	.
8D/	.	16cc/LL	.
.	.	16b/	.
8G/J)	.	16a/	.
.	.	16g/JJ)	.
=38	=38	=38	=38
(8AA/L	.	(4f#/	.
8C/	.	.	.
8D/	.	16g/LL	.
.	.	16f#/	.
8F#/J)	.	16e/	.
.	.	16d/JJ)	.
=39	=39	=39	=39
(8GG/L	.	8g/L	.
8BB/	.	(8g/J	.
8D/	.	16a/LL	.
.	.	16g/	.
8G/J)	.	16f#/	.
.	.	16g/JJ)	.
=40	=40	=40	=40
8DD\L	.	4a/	.
8D\	.	.	.
8F#\	.	16a\LL	.
.	.	16b\	.
8A\J	.	16cc\	.
.	.	16dd\JJ	.
=41	=41	=41	=41
8F#\ 8c\L	f	(4ee\	f
8F#\ 8c\J	.	.	.
4r	.	16dd\LL	.
.	.	16cc\	.
.	.	16b\	.
.	.	16a\JJ)	.
=42	=42	=42	=42
8G\ 8B\	.	8dd\L	.
8r	.	8dd\J	.
8G\ 8B\	.	16cc/LL	.
.	.	16b/	.
8r	.	16a/	.
.	.	16g/JJ	.
=43	=43	=43	=43
8D\ 8A\	.	8cc\L	.
8r	.	8cc\J	.
8D\ 8A\	.	16b/LL	.
.	.	16a/	.
8r	.	16g/	.
.	.	16f#/JJ	.
=44	=44	=44	=44
8GG/L	.	8g/	.
16AA/L	.	8r	.
16BB/JJ	.	.	.
16C\LL	.	4r	.
16D\	.	.	.
16E\	.	.	.
16F#\JJ	.	.	.
=45	=45	=45	=45
8G\	.	8r	.
8r	p	8cc'\ 8ee'\L	p
4r	.	8b'\ 8dd'\	.
.	.	8cc'\ 8ee'\J	.
=46	=46	=46	=46
8GG/L	.	8b'\ 8dd'\	.
16AA/L	.	8r	.
16BB/JJ	.	.	.
16C\LL	.	4r	.
16D\	.	.	.
16E\	.	.	.
16F#\JJ	.	.	.
=47	=47	=47	=47
8G'\	.	8r	.
8r	.	8cc'\ 8ee'\L	.
4r	.	8b'\ 8dd'\	.
.	.	8cc'\ 8ee'\J	.
=48	=48	=48	=48
8GG/L	.	8b'\ 8dd'\	.
16AA/L	.	8r	.
16BB/JJ	.	.	.
16C\LL	.	4r	.
16D\	.	.	.
16E\	.	.	.
16F#\JJ	.	.	.
=49	=49	=49	=49
8G'\L	.	8r	.
8c'\	f	8g'\ 8ee'\L	f
8B'\	.	8g'\ 8dd'\	.
8c'\J	.	8g'\ 8ee'\J	.
=50	=50	=50	=50
8B'\L	.	8g\ 8dd\L	.
8B'\	.	8g\ 8dd\	.
8c'\	.	8a\ 8cc\	.
8c'\J	.	8a\ 8cc\J	.
=51	=51	=51	=51
8d'\L	.	8g/ 8b/L	.
8d'\	.	8g/ 8b/	.
8D'\	.	8f#/ 8a/	.
8D'\J	.	8f#/ 8a/J	.
=52	=52	=52	=52
8G'\	.	8g/	.
8r	.	8r	.
4r	p	16ddd\LL	p
.	.	16ccc\	.
.	.	16bb\	.
.	.	16aa\JJ	.
=53	=53	=53	=53
4r	.	8gg\L	.
.	.	8gg\	.
*clefG2	*clefG2	*	*
4d/ 4a/	p	8dd\	.
.	.	8dd\J	.
=54	=54	=54	=54
8g/	.	8b\	.
8r	.	8r	.
4r	.	16ddd\LL	.
.	.	16ccc\	.
.	.	16bb\	.
.	.	16aa\JJ	.
=55	=55	=55	=55
4r	.	8gg\L	.
.	.	8gg\	.
4d/ 4a/	.	8dd\	.
.	.	8dd\J	.
=56	=56	=56	=56
8g/	.	8b\	.
8r	.	8r	.
*clefF4	*clefF4	*	*
8D\ 8d\	f	8a\ 8cc\ 8ff#\	f
8r	.	8r	.
=57	=57	=57	=57
8B\	.	8b\ 8dd\ 8gg\	.
8r	.	8r	.
8D\ 8d\	.	8cc\ 8ff#\	.
8r	.	8r	.
=58	=58	=58	=58
8B\	.	8b\ 8dd\ 8gg\	.
8r	.	8r	.
=	=	=	=
*>B	*>B	*>B	*>B
4r	p	8b\L	p
.	.	8b\J	.
=59	=59	=59	=59
4r	.	8b\L	.
.	.	8b\	.
4g\	.	8ee\	.
.	.	8ee\J	.
=60	=60	=60	=60
4f#\	.	8dd#\L	.
.	.	8dd#\	.
4r	.	8b\	.
.	.	8b\J	.
=61	=61	=61	=61
4r	.	8b\L	.
.	.	8b\	.
4e\	.	8gg\	.
.	.	8gg\J	.
=62	=62	=62	=62
4d#\	.	8ff#\L	.
.	.	8ff#\	.
4dn\	.	8bb\	.
.	.	8bb\J	.
=63	=63	=63	=63
4c#\	.	8ee\L	.
.	.	8ee\	.
4cn\	.	8aa\	.
.	.	8aa\J	.
=64	=64	=64	=64
4B\	.	8dd\L	.
.	.	8dd\J	.
4E\	.	16aa\LL	.
.	.	16gg\	.
.	.	16ff#\	.
.	.	16gg\JJ	.
=65	=65	=65	=65
4G\	.	8ee\L	.
.	.	8ee\	.
4E\	.	8cc#\	.
.	.	8cc#\J	.
=66	=66	=66	=66
2F#\	.	8a#/L	.
.	.	8a#/	.
.	.	8f#/	.
.	.	8f#/J	.
=67	=67	=67	=67
4r	.	8f#/L	.
.	.	8f#/	.
4d\	.	8b/	.
.	.	8b/J	.
=68	=68	=68	=68
4c#\	.	8a#/L	.
.	.	8a#/	.
4r	.	8f#/	.
.	.	8f#/J	.
=69	=69	=69	=69
4r	.	8f#/L	.
.	.	8f#/	.
4B\	.	8dd/	.
.	.	8dd/J	.
=70	=70	=70	=70
4A#\	.	8cc#\L	.
.	.	8cc#\	.
4An\	.	8ff#\	.
.	.	8ff#\J	.
=71	=71	=71	=71
4G#\	.	8b\L	.
.	.	8b\	.
4Gn\	.	8ee\	.
.	.	8ee\J	.
=72	=72	=72	=72
4F#\	.	8an\L	.
.	.	8a\	.
4BB/	.	8dd\	.
.	.	8dd\J	.
=73	=73	=73	=73
4E\	.	8dd\L	.
.	.	8g#\J	.
4EE/	.	16a/LL	.
.	.	16g#/	.
.	.	16f#/	.
.	.	16g#/JJ	.
=74	=74	=74	=74
8AA/	.	8b/L	.
8r	.	8a/J	.
16G#\LL	.	4r	.
16A\	.	.	.
16G#\	.	.	.
16A\JJ	.	.	.
=75	=75	=75	=75
8AA/L	.	4r	.
8AA/J	.	.	.
4r	.	8d/ 8f#/L	.
.	.	8d/ 8f#/J	.
=76	=76	=76	=76
4r	.	8c#/ 8e/L	.
.	.	8c#/ 8e/J	.
16G#\LL	.	4r	.
16A\	.	.	.
16G#\	.	.	.
16A\JJ	.	.	.
=77	=77	=77	=77
8AA/L	.	4r	.
8AA/J	.	.	.
4r	.	8d#/ 8f#/L	.
.	.	8d#/ 8f#/J	.
=78	=78	=78	=78
4r	.	8e/ 8gn/L	.
.	.	8e/ 8g/J	.
8A\ 8c#\L	ff	8ee\ 8gg\L	ff
8A\ 8c#\J	.	8ee\ 8gg\J	.
=79	=79	=79	=79
8c#\ 8e\L	.	8cc#\ 8ee\L	.
8c#\ 8e\	.	8cc#\ 8ee\	.
8e\ 8g\	.	8a\ 8cc#\	.
8e\ 8g\J	.	8a\ 8cc#\J	.
=80	=80	=80	=80
8d\ 8f#\L	.	(4aa\	.
8d\ 8f#\J	.	.	.
4r	.	16gg\LL	.
.	.	16ff#\	.
.	.	16ee\	.
.	.	16dd\JJ)	.
=81	=81	=81	=81
*	*	*k[f#c#]	*k[f#c#]
8GG/ 8G/L	.	(8cc#\L	.
8GG/ 8G/J	.	8b\J	.
4r	.	16a/LL	.
.	.	16g/	.
.	.	16f#/	.
.	.	16e/JJ)	.
=82	=82	=82	=82
8AA/ 8F#/L	.	(4d/	.
8AA/ 8F#/J	.	.	.
4r	.	16e/LL	.
.	.	16d/	.
.	.	16c#/	.
.	.	16B/JJ)	.
=83	=83	=83	=83
8AA/ 8C#/L	.	4A/	.
8AA/ 8C#/J	.	.	.
*	*	*clefF4	*clefF4
4r	.	16A\LL	.
.	.	16G\	.
.	.	16F#\	.
.	.	16E\JJ	.
=84	=84	=84	=84
4DD/	p	8D\L	p
.	.	8D\	.
4r	.	8F#\	.
.	.	8F#\J	.
=85	=85	=85	=85
4r	.	8B\L	.
.	.	8B\	.
4D\	.	8G#\	.
.	.	8G#\J	.
=86	=86	=86	=86
4C#/	.	8A\L	.
.	.	8A\J	.
*	*	*clefG2	*clefG2
4r	.	8e/L	.
.	.	8e/J	.
=87	=87	=87	=87
*	*	*k[f#]	*k[f#]
4r	pp	8a/L	pp
.	.	8a/	.
4Cn/	.	8f#/	.
.	.	8f#/J	.
=88	=88	=88	=88
4BB/	.	8g/L	.
.	.	8g/	.
4r	.	8b/	.
.	.	8b/J	.
=89	=89	=89	=89
4G\	.	(8b/L	.
.	.	8e/J)	.
4G#\	.	(8b/L	.
.	.	8d/J)	.
=90	=90	=90	=90
4A\	.	(8d/L	.
.	.	8c#/J)	.
4r	.	8ee\L	.
.	.	8ee\J	.
=91	=91	=91	=91
4c#\	.	(8ee\L	.
.	.	8a\)	.
4B\	.	(8ee\	.
.	.	8gn\J)	.
=92	=92	=92	=92
4A#\	.	(8g/L	.
.	.	8f#/J)	.
4B\	.	8dd\L	.
.	.	8dd\J	.
=93	=93	=93	=93
4G\	.	8e/L	.
.	.	8e/J	.
4An\	.	16a/LL	.
.	.	16g/	.
.	.	16f#/	.
.	.	16e/JJ	.
=94	=94	=94	=94
(4DD/	pp	16d/LL	pp
.	.	16f#/	.
.	.	16d/	.
.	.	16f#/JJ	.
4FF#/	.	16d/LL	.
.	.	16f#/	.
.	.	16d/	.
.	.	16f#/JJ	.
=95	=95	=95	=95
4BB/	.	16d/LL	.
.	.	16f#/	.
.	.	16d/	.
.	.	16f#/JJ	.
4GG#/)	.	16d/LL	.
.	.	16f#/	.
.	.	16d/	.
.	.	16f#/JJ	.
=96	=96	=96	=96
(4AA/	.	16d/LL	.
.	.	16e/	.
.	.	16d/	.
.	.	16e/JJ	.
4E\	.	16d/LL	.
.	.	16e/	.
.	.	16d/	.
.	.	16e/JJ	.
=97	=97	=97	=97
4A\	.	16c#/LL	.
.	.	16e/	.
.	.	16c#/	.
.	.	16e/JJ	.
4D\)	.	16cn/LL	.
.	.	16f#/	.
.	.	16c/	.
.	.	16f#/JJ	.
=98	=98	=98	=98
4G\	.	16B/LL	.
.	.	16g/	.
.	.	16B/	.
.	.	16g/JJ	.
4r	.	16b/LL	.
.	.	16a/	.
.	.	16g/	.
.	.	16f#/JJ	.
=99	=99	=99	=99
4G\	.	16e/LL	.
.	.	16f#/	.
.	.	16e/	.
.	.	16f#/JJ	.
4r	.	16g/LL	.
.	.	16f#/	.
.	.	16e/	.
.	.	16d/JJ	.
=100	=100	=100	=100
4AA\ 4E\ 4G\	f	4c#/	f
4r	.	16e/LL	.
.	.	16c#/	.
.	.	16B/JJ	.
.	.	16d/	.
=101	=101	=101	=101
4AA\ 4E\ 4G\	.	16A/LL	.
.	.	16B/	.
.	.	16c#/	.
.	.	16d/JJ	.
4AA\ 4E\ 4G\	.	16e/LL	.
.	.	16f#/	.
.	.	16g/	.
.	.	16a/JJ	.
=102	=102	=102	=102
4D\ 4F#\	.	16d/LL	.
.	.	16f#/	.
.	.	16a/	.
.	.	16dd/JJ	.
4GG/ 4G/	.	8b\L	.
.	.	8b\J	.
=103	=103	=103	=103
4AA/ 4D/ 4F#/	.	8d/L	.
.	.	8d/J	.
4AA\ 4C#\ 4G\	.	16f#/LL	.
.	.	16e/	.
.	.	16d/	.
.	.	16e/JJ	.
=104	=104	=104	=104
4D\ 4F#\	.	16d/LL	.
.	.	16f#/	.
.	.	16a/	.
.	.	16dd/JJ	.
4GG/ 4G/	.	8b\L	.
.	.	8b\J	.
=105	=105	=105	=105
4AA/ 4D/ 4F#/	.	8d/L	.
.	.	8d/J	.
4AA\ 4C#\ 4G\	.	16f#/LL	.
.	.	16e/	.
.	.	16d/	.
.	.	16e/JJ	.
=106	=106	=106	=106
8D\ 8F#\L	p	8d/	p
8D\ 8F#\J	.	8r	.
4r	.	16d/LL	.
.	.	16e/	.
.	.	16f#/	.
.	.	16g/JJ	.
=107	=107	=107	=107
8D\ 8F#\L	.	8a/	.
8D\ 8F#\J	.	8r	.
4r	.	16f#/LL	.
.	.	16g/	.
.	.	16a/	.
.	.	16b/JJ	.
=108	=108	=108	=108
8D\ 8F#\ 8A\L	pp	8ccn\	pp
8D\ 8F#\ 8A\J	.	8r	.
4r	.	16dd\LL	.
.	.	16ee\	.
.	.	16ff#\	.
.	.	16gg\JJ	.
*clefG2	*clefG2	*	*
=109	=109	=109	=109
8d/ 8f#/L	.	8aa\	.
8d/ 8f#/J	.	8r	.
4r	.	16ff#\LL	.
.	.	16gg\	.
.	.	16aa\	.
.	.	16bb\JJ	.
=110	=110	=110	=110
8d/ 8f#/ 8a/L	.	8cccn\	.
8d/ 8f#/ 8a/J	.	8r	.
4r	.	16ff#\LL	.
.	.	16gg\	.
.	.	16aa\	.
.	.	16bb\JJ	.
=111	=111	=111	=111
8d/ 8f#/ 8a/L	.	8ccc\	.
8d/ 8f#/ 8a/J	.	8r	.
4r	.	16ccc\LL	.
.	.	16ddd\	.
.	.	16eee\	.
.	.	16ddd\JJ	.
=112	=112	=112	=112
2r	.	4ccc\	.
.	.	4r	.
=113	=113	=113	=113
4r	.	4r	.
=	=	=	=
*-	*-	*-	*-
!!!ENC: Craig Stuart Sapp
!!!END: 2004/11/26/
